X: 3312
M: 3/4
L: 1/4
K: G
(G>AB/c/) | BAG | (F>GA/B/) | AFD |\
(G>AB/c/) | BAG | Bdd | d2 ::\
uB |\
cde | (d2c) | BAG | (d2B) |\
cBc | Adc | "_D.C. to Allegro"BGG | Gz :|


